X:1
T:O no, thou dost but flout me - Morley
T:#
%%score { 1 | 2 } 3 4
L:1/8
Q:1/4=120
M:4/4
K:Bb
V:1 treble nm="Soprano I" snm="S"
V:2 treble 
V:3 treble nm="Alto" snm="A"
V:4 treble-8 nm="Tenor" snm="T"
V:1
 d8 | c6 c2 |"^O no, thou dost but flout me" d3 d c3 c | c2 c2 c4 | c6 f2 | %5
w: O|no no|no no no, thou|dost but flout|me, thou|
 e2 d3 d"^Thomas Morley\n(1557-1603)" c2 |[M:4/4] B4 f2 F2 | G2 B3 B A2 | G4 F2 G2 | A2 B4 A2 | %10
w: dost flout, thou dost|flout me, thou|dost flout, thou dost|flout me, thou|dost but flout|
 B2 de f4 | z2 Bc d2 de | f4 z2 BA | G4 z2 gf | e2 d2 c2 =B2 | c2 d2 e2 d2 | c2 d2 e4 | d4 z2 B2 | %18
w: me: Fie a- way,|fie a- way, fie a-|way, fie a-|way, fie a-|way, I say, nay|thou canst live canst|live with- out|me, yea|
 c2 d4 c2- | cc B2 A4 | G8 | z2 d2 d2 d2 | (cBAG F2) f2 | (e4 c4) | d8 | z2 B2 Bcde | f3 e d4 | %27
w: thou canst live|* well with- out|me,|yea thou canst|live * * * * with-|out *|me.|Since for me then you|care not, you|
[M:4/4] c8 x4 | d4 B6 x2 | B2 A4 x6 |[M:3/2] G4 G4 z4 |[M:3/2] d8- d4 | (c2 B2) A4 (G4- | %33
w: care|not, spite|me and|spare not.|O *|hea\- * vy part\-|
 G2 ^F=E F4) G8 | x12 | x8 z4 |[M:4/4] g8- | g4 f4 | =e4 f4- | f4 _e4 | f4 f4 | e8- | e4 d4 | c8 | %44
w: * * * * ing!|||Turn,|* O|turn, turn,|* O|turn and|cure|* this|smart-|
 d6 f2 | d2 f2 e2 d2 | c4 B2 d2 | g2 f4 =e2 | f2 f2 d2 f2 | e2 d2 c4 | B2 d2 g2 (f2- | f2 d2) c4 | %52
w: ing. Come|then, O come with|com- fort, O|come with com-|fort, come then, O|come with com-|fort, O come with|* * com-|
 d2 (c3 BAG) | F2 f3 e d2 | c4 c4 | c2 A3 B c2 | d2 f3 e d2 | c2 A3 (B c2) | d2 d3 e f2 | g8- | %60
w: fort com\- * * *|fort, pi- ty my|cry- ing.|O help a- las,|O help a- las,|O help a\- *|las, for now I|lie|
 g4 g4 | f8- | f8 | d8 | z8 | f4 d2 f2 | e2 d2 (c2 B2-) | (B2 A2) B4 | z4 f4 | d2 f2 e2 d2 | %70
w: * a-|dy\-||ing.||Come then, O|come with com- *|* * fort.|come|then, O come with|
 (c2 B4 A2) | B2 (A3 B c2) | d4 z2 B2- | BB A2 G2 G2 | A2 F3 G A2 | B2 d3 c B2 | A2 c3 (BAG) | %77
w: com\- * *|fort, com\- * *|fort, pi\-|* ty my cry- ing.|O help a- las,|O help a- las,|O help a\- * *|
 F2 B3 (c d2) | e6 d2 | c4[Q:1/4=117] B4 |[Q:1/4=114] A2[Q:1/4=112] A2[Q:1/4=109] (B4- | %81
w: las, help a\- *|las, for|now I|lie a- dy\-|
[Q:1/4=106] B2[Q:1/4=105] A[Q:1/4=104]G[Q:1/4=101] A4) |[Q:1/4=100] d8 |] %83
w: |ing.|
V:2
 B8 | A6 A2 | B3 B A3 A | G2 A2 G4 | A8 | z4 z2 f2 |[M:4/4] e2 d3 d c2 | (Bcde) f4 | z2 c2 d2 e2 | %9
w: O|no no|no no no, thou|dost but flout|me,|thou|dost flout, thou dost|flout * * * me,|thou dost but|
 f2 d2 c4 | d2 Bc d4 | z2 de f4 | z2 Bc d4 | z2 gf e2 d2 | c2 =B2 c2 d2 | e2 d2 c2 d2 | e2 d2 c4 | %17
w: flout, but flout|me: Fie a- way,|fie a- way,|fie a- way,|fie a- way, I|say, nay thou canst|live, nay thou canst|live with- out|
 =B6 d2 | e2 f3 f e2 | d8 | d8 | z2 f2 f2 f2 | (edcB A2) d2 | (c2 B4 A2) | B8 | z4 z2 B2 | %26
w: me, thou|canst live well with-|out|me,|yea thou canst|live * * * * with-|out * *|me.|Since|
 Bcd (e f4) |[M:4/4] f8 f4 | e6 e2 c4 | x12 |[M:3/2] c4 c4 z4 |[M:3/2] z4 f4- x4 | f4 e4 x4 | %33
w: for me then you *|care not,|spite me and||spare not.|O|* what|
 d4 d4 x8 | z4 d4- z4 | d4 c4 z4 |[M:4/4] =B8 | c4 A4 | G4 c4- | c4 G4 | A4 d4- | d4 c4- | %42
w: part- ing!|Turn,|* O|turn,|turn, O|turn, turn,|* O|turn and|* cure|
 c2 B2 (B4- | B4 A4) | B8 | z8 | f4 d2 f2 | e2 d2 (c2 B2- | B2 A2) B4 | z4 f4 | d2 f2 e2 d2 | %51
w: * this smart\-||ing.||Come, then, O|come with com\- *|* * fort,|come|then, O come with|
 (c2 B4 A2) | B2 (A3 B c2) | d4 z2 B2- | BB A2 G2 G2 | A2 F3 G A2 | B2 d3 c B2 | A2 c3 (BAG) | %58
w: com\- * *|fort, com\- * *|fort, pi\-|* ty my cry- ing.|O help a- las,|O help a- las,|O help a\- * *|
 F2 B3 (c d2) | e6 d2 | c4 B4 | A2 A2 (B4- | B2 AG A4) | B6 f2 | d2 f2 e2 d2 | c4 B2 d2 | %66
w: las, help a\- *|las, for|now I|lie a- dy\-||ing. Come|then, O come with|com- fort, O|
 g2 f4 =e2 | f2 f2 d2 f2 | e2 d2 c4 | B2 d2 g2 (f2- | f2 d2) c4 | d2 (c3 BAG) | F2 f3 e d2 | %73
w: come with com-|fort, come then, O|come with com-|fort, O come with|* * com-|fort com\- * * *|fort, pi- ty my|
 c4 c4 | c2 A3 B c2 | d2 f3 e d2 | c2 A3 (B c2) | d2 d3 e f2 | g8- | g4 g4 | f8- | f8 | B8 |] %83
w: cry- ing.|O help a- las,|O help a- las,|O help a\- *|las, for now I|lie|* a-|dy\-||ing.|
V:3
 F8 | F6 F2 | F3 G =E2 F2 | =E2 F4 E2 | F6 F2 | G2 B3 B A2 |[M:4/4] G4 F4 | z2 B,2 C2 C2 | %8
w: O|no no|no no no, thou|dost but flout|me, thou|dost flout, thou dost|flout me,|thou dost but|
 E4 D2 B,2 | C2 (DE) F4 | F4 z2 DE | F4 z2 FE | D2 DC B,C D2 | E2 B,2 C2 G,2 | z2 GF E2 D2 | %15
w: flout me, thou|dost but * flout|me: Fie a-|way, fie a-|way, fie a- way I say,|fie a- way, fie,|fie a- way, nay|
 C2 B,2 C2 G,2 | G8 | G6 G2 | G2 B3 A G2 | ^F2 G4 F2 | G2 B2 B2 B2 | (AGFE DCB,A, | %22
w: thou canst live with-|out|me, thou|canst live with- out|me, with- out|me, yea thou canst|live * * * * * * *|
 G,2) C3 (B, A,2) | G,2 G2 F4 | F4 z2 B,2 | B,CDE F2 F2 | B,2 F2 B4 |[M:3/2] A8 B4 | G6 G2 F4 | %29
w: * with- out *|me, with- out|me. Since|for me then, you care not,|for me you|care not,|spite me and|
[M:3/2] =E4 E4 z4 |[M:4/4] F8 x4 | D4 G4 x4 | ^F4 B4 x4 | A4 A,4 x8 | =B,4 E4 z4 |[M:4/4] D8 | %36
w: spare not.|O|hea- vy|part- ing,|hea- vy,|hea- vy|part-|
 C4 c4- | c4 A4 | G4 c4- | c4 (B2 A2) | G4 G4 | F8- | F8 | F8 | B4 G2 B2 | B2 A2 B2 F2 | %46
w: ing! Turn,|* O|turn, turn|* and *|cure this|smart\-||ing.|Come, then, O|come with com- fort,|
 (B,CDE F2) B,2 | C4 B,2 B2 | G2 B2 B2 A2 | B2 F2 (B,CDE | F8) | F4 z2 (F2- | FEDE) F2 (G2 | %53
w: come * * * * with|com- fort, come|then, O come with|com- fort, com- * * *||fort, pi\-|* * * * ty my|
 =E2) (F4 E2) | F4 z4 | z2 B,3 (CDE) | F4 z2 F2- | F (EDC) B,2 A,2 | G,2 B,3 C D2 | E8- | E4 D4 | %61
w: * cry\- *|ing.|Help a\- * *|las, help|* a\- * * las, a-|las, for now I|lie|* a-|
 C8 | B,8 | B4 G2 B2 | B2 A2 B2 F2 | (B,CDE F2) B,2 | C4 B,2 B2 | G2 B2 B2 A2 | B2 F2 (B,CDE | %69
w: dy-|ing.|Come then, O|come with com- fort,|come * * * * with|com- fort, come|then, O come with|com- fort, com\- * * *|
 F8) | F4 z2 F2- | (FEDE) F2 (G2 | =E2) (F4 E2) | F4 z4 | z2 B,3 (CDE) | F4 z2 F2- | %76
w: |fort, pi\-|* * * * ty my|* cry\- *|ing.|Help a\- * *|las, help|
 F (EDC) B,2 A,2 | G,2 B,3 C D2 | E8- | E4 D4 | C8 | B,8 | x8 |] %83
w: * a\- * * las, a-|las, for now I|lie|* a-|dy-|ing.||
V:4
 B8 | F6 F2 | B3 G A2 F2 | c2 (AB) c4 | F8 | z4 z2 F2 |[M:4/4][K:treble-8] G2 B3 B A2 | G4 F2 F2 | %8
w: O|no no|no no no, thou|dost but * flout|me,|thou|dost flout, thou dost|flout me, thou|
 G2 A2 B2 G2 | F8 | B,4 B2 B2 | B8 | z2 BA G3 F | E2 D2 C2 =B,2 | C2 G2 c2 G2 | C2 G2 C2 =B,2 | %16
w: dost but flout, but|flout|me: Fie a-|way,|fie a- way, I|say, a- way, I|say, nay thou, nay|thou, nay thou canst|
 C2 G2 C4 | G6 G2 | c2 B3 B c2 | d8 | G2 G2 G2 G2 | (FEDC B,2) B,2 | C4 D4 | (E4 F4) | %24
w: live with- out|me, thou|canst live well with-|out|me, yea thou canst|live, * * * * canst|live with-|out *|
 B,2 B2 Bcde | f4 B4 | z2 B,2 B,CDE |[M:3/2] F8 D4 | E6 E2 F4 |[M:3/2][K:treble-8] C4 C4 z4 | %30
w: me. Since for me then you|care not,|since for me then you|care not,|spite me and|spare not.|
[M:4/4] B,8 x4 | B,4 C4 x4 | D8 x4 | D8 x8 | G8- z4 |[M:4/4][K:treble-8] G4 F4 | =E4 F4 | C8- | %38
w: O|hea- vy|part-|ing!|Turn,|* O|turn, turn,|O|
 C8 | F4 D4 | E4 E4 | F8- | F8 | B,8 | z8 | z4 B4 | G2 B2 A2 G2 | F4 B,4 | z8 | B4 G2 B2 | %50
w: |turn and|cure this|smart\-||ing.||Come|then, O come with|com- fort,||come then, O|
 A2 B2 F4 | B,2 F3 G A2 | (B8 | c8) | F8 | z8 | z2 F3 G A2 | B3 A G2 F2 | E8- | E4 E4 | F8- | F8 | %62
w: come with com-|fort, pi- ty my|cry\-||ing.||Help a- las,|help for now I|lie|* a-|dy\-||
 B,8 | z8 | z4 B4 | G2 B2 A2 G2 | F4 B,4 | z8 | B4 G2 B2 | A2 B2 F4 | B,2 F3 G A2 | (B8 | c8) | %73
w: ing.||Come|then, O come with|com- fort.||come then, O|come with com-|fort, pi- ty my|cry-||
 F8 | z8 | z2 F3 G A2 | B3 A G2 F2 | E8- | E4 E4 | F8- | F8 | B,8 | x8 |] %83
w: ing.||Help a- las,|help for now I|lie|* a-|dy\-||ing.||

